src/categories-icons-sprite/categories/svg-cat-electr-cigarets.svg

<svg width="33" height="35" viewBox="0 0 33 35" fill="none" xmlns="http://www.w3.org/2000/svg">
<path class="p-804231" d="M20.5762 14.4238H30.8301V20.5762H20.5762V14.4238Z" fill="#5FBEFF"/>
<path class="p-582B1F" d="M25.7031 14.4238H30.8301V20.5762H25.7031V14.4238Z" fill="#4D98CB"/>
<path class="p-804231" d="M30.8301 14.4238H20.5762L22.627 4.10156H28.7793L30.8301 14.4238Z" fill="#5FBEFF"/>
<path class="p-582B1F" d="M30.8301 14.4238H25.7031V4.10156H28.7793L30.8301 14.4238Z" fill="#4D98CB"/>
<path class="p-DEECF1" d="M16.4746 6.15234V14.4238L14.4238 16.4746L12.373 14.4238V6.15234L14.4238 4.10156L16.4746 6.15234Z" fill="#A1D1FD"/>
<path class="p-A8D3D8" d="M16.4746 6.15234V14.4238L14.4238 16.4746V4.10156L16.4746 6.15234Z" fill="#5FBEFF"/>
<path class="p-99503D" d="M13.3984 0H15.4492V3.07617H13.3984V0Z" fill="#5FBEFF"/>
<path class="p-804231" d="M16.4746 14.4238V18.5254L14.4238 19.1406L9.62505 20.5762L0 18.5254L4.10156 14.4238H16.4746Z" fill="#5FBEFF"/>
<path class="p-663325" d="M14.4238 0H15.4492V3.07617H14.4238V0Z" fill="#4D98CB"/>
<path class="p-582B1F" d="M14.4238 14.4238H16.4746V18.5254L14.4238 19.1406V14.4238Z" fill="#4D98CB"/>
<path class="p-FDBF00" d="M0 18.5254H16.4746V35H0V18.5254Z" fill="#A1D1FD"/>
<path class="p-FF7816" d="M14.4238 18.5254H16.4746V35H14.4238V18.5254Z" fill="#5FBEFF"/>
<path class="p-804231" d="M12.373 2.05078H16.4746V6.15234H12.373V2.05078Z" fill="#5FBEFF"/>
<path class="p-582B1F" d="M14.4238 2.05078H16.4746V6.15234H14.4238V2.05078Z" fill="#4D98CB"/>
<path class="p-99503D" d="M18.5254 14.4238C18.5254 13.2912 19.4436 12.373 20.5762 12.373H30.8301C31.9627 12.373 32.8809 13.2912 32.8809 14.4238C32.8809 15.5564 31.9627 16.4746 30.8301 16.4746H20.5762C19.4436 16.4746 18.5254 15.5564 18.5254 14.4238Z" fill="#A1D1FD"/>
<path class="p-663325" d="M25.7031 12.373H30.8301C31.9627 12.373 32.8809 13.2912 32.8809 14.4238C32.8809 15.5564 31.9627 16.4746 30.8301 16.4746H25.7031V12.373Z" fill="#5FBEFF"/>
<path class="p-FDBF00" d="M32.8809 18.5254V35H18.5254V30.8984L20.5762 28.8477V24.6777L18.5254 22.627V18.5254H32.8809Z" fill="#A1D1FD"/>
<path class="p-FF7816" d="M25.7031 18.5254H32.8809V35H25.7031V18.5254Z" fill="#5FBEFF"/>
<path class="p-DEECF1" d="M18.5254 22.627H28.7793V30.8984H18.5254V22.627Z" fill="#B9DFFC"/>
<path class="p-A8D3D8" d="M25.7031 22.627H28.7793V30.8984H25.7031V22.627Z" fill="#A1D1FD"/>
</svg>

<svg width="33" height="35" fill="none" xmlns="http://www.w3.org/2000/svg"><path class="p-804231" d="M20.576 14.424H30.83v6.152H20.576v-6.152z" fill="#5FBEFF"/><path class="p-582B1F" d="M25.703 14.424h5.127v6.152h-5.127v-6.152z" fill="#4D98CB"/><path class="p-804231" d="M30.83 14.424H20.576l2.051-10.322h6.152l2.051 10.322z" fill="#5FBEFF"/><path class="p-582B1F" d="M30.83 14.424h-5.127V4.102h3.076l2.051 10.322z" fill="#4D98CB"/><path class="p-DEECF1" d="M16.475 6.152v8.272l-2.051 2.05-2.051-2.05V6.152l2.05-2.05 2.052 2.05z" fill="#A1D1FD"/><path class="p-A8D3D8" d="M16.475 6.152v8.272l-2.051 2.05V4.103l2.05 2.05z" fill="#5FBEFF"/><path class="p-99503D" d="M13.398 0h2.051v3.076H13.4V0z" fill="#5FBEFF"/><path class="p-804231" d="M16.475 14.424v4.101l-2.051.616-4.799 1.435L0 18.526l4.102-4.102h12.373z" fill="#5FBEFF"/><path class="p-663325" d="M14.424 0h1.025v3.076h-1.025V0z" fill="#4D98CB"/><path class="p-582B1F" d="M14.424 14.424h2.05v4.101l-2.05.616v-4.717z" fill="#4D98CB"/><path class="p-FDBF00" d="M0 18.525h16.475V35H0V18.525z" fill="#A1D1FD"/><path class="p-FF7816" d="M14.424 18.525h2.05V35h-2.05V18.525z" fill="#5FBEFF"/><path class="p-804231" d="M12.373 2.05h4.102v4.102h-4.102V2.051z" fill="#5FBEFF"/><path class="p-582B1F" d="M14.424 2.05h2.05v4.102h-2.05V2.051z" fill="#4D98CB"/><path class="p-99503D" d="M18.525 14.424a2.05 2.05 0 012.051-2.051H30.83a2.05 2.05 0 010 4.102H20.576a2.05 2.05 0 01-2.05-2.051z" fill="#A1D1FD"/><path class="p-663325" d="M25.703 12.373h5.127a2.05 2.05 0 010 4.102h-5.127v-4.102z" fill="#5FBEFF"/><path class="p-FDBF00" d="M32.88 18.525V35H18.526v-4.102l2.051-2.05v-4.17l-2.05-2.051v-4.102H32.88z" fill="#A1D1FD"/><path class="p-FF7816" d="M25.703 18.525h7.178V35h-7.178V18.525z" fill="#5FBEFF"/><path class="p-DEECF1" d="M18.525 22.627H28.78v8.271H18.525v-8.271z" fill="#B9DFFC"/><path class="p-A8D3D8" d="M25.703 22.627h3.076v8.271h-3.076v-8.271z" fill="#A1D1FD"/></svg>
